X:31
T:GB/7d/31A Song-0
%%VWML:GB-7d-31A-0
F:http://www.vwml.org/record/GB/7d/31A
T:Winlaton Sword Dance Tunes 1 of 2
C:Transcribed by Simon Furey and Lewis Jones
L:1/8
M:6/8
I:linebreak $
K:Aaeo
g/^f/ | eA A cBA | E A2- A2 d | de d dBc | d3- d2 d | eA A cBA |$ E A2- A2 B | cd e dcB |
A3- A2 || A | A^c e ggg | ^f e2- e2 d |$ de d eBG | d3- dg^f | eA A cBA | E A2- A2 B | cd e dcB | A3- A2 |]

